X: 761
T: Old Virginia Reel
B: jims roots
M:2/4
L:1/8
Q: 1/4=100
K:D
V:1 
%S:Thomas Michaels (Texas)
A,C|: "D"D2FD "A"A,CEC| "D"DFAc d2eg | fedB AFED | "A"E2EF ECA,C|
"D"D2FD "A"A,CEC | "D"DFAc d2eg | fedB AFED | "A"A,CEC "D"D4:|
|:"D"d2fd "A"Acec | "D"defg afgb | faec dBAG | FDFD "A"E2(3ABc |
  "D"d2fd "A"Acec | "D"defg afgb | faec dBAG | FD"A"EC "D"D4:|
% abcbook-tune_id 6298c2794e0290b5069cb8ca


% abcbook-boost 0
% abcbook-tablature 
% abcbook-transpose 
% abcbook-lastupdated 1654178426150
% abcbook-soundfonts 
% abcbook-repeats 1


